X:9
T:Mrs. Kenny's
T:Woodland Flowers
R:barndance
C:Felix Burns (1864-1920), Scotland
H:Also played by Matt Molloy in D
D:Michael Coleman
Z:id:hn-barndance-9
M:C|
K:C
(3EF^F | Gedc Gedc | A2df a4 | (3aba ge (3fgf AB | (3cBc (3ecA G2 (3EF^F |
Gedc Gedc | A2df a4 | (3aba ge (3fgf AB |1 (3cBc ed c2 :|2 (3cBc ed c2c2 ||
K:G
(3bag dg (3bag dg | (3c'ba ea (3c'ba eg | fd^cd e2f2 | (3gfa (3gfe (3ded B2 |
(3bag dg (3bag dg | (3c'ba ea (3c'ba eg | fd^cd e2f2 | g2f2 g4 ||
BABd cBce | d2g2 g3f | edeg agfe | d6 (3edc |
B2g2 g2 (3dcB | A2f2 f3g | aeeg fefa | (3gfg b2 g2 ||
P:Last part played like this by Michael Coleman:
AGAc BABd | B2g2 g3f | edeg agfe | d4 d2 (3cdc |
B2g2 g2 (3BcB | A2f2 f3g | aeeg fefa | (3gfg ba g2 ||
<end>
<start>
